static/img/chainfusion/cktokens.svg

<svg width="84" height="84" viewBox="0 0 84 84" fill="none" xmlns="http://www.w3.org/2000/svg">
<g clip-path="url(#clip0_15880_65748)">
<path d="M42 0C65.1933 0 84 18.8067 84 42C84 65.1933 65.1933 84 42 84C18.8067 84 0 65.1933 0 42C0 18.8067 18.8067 0 42 0Z" fill="#3B00B9"/>
<path fill-rule="evenodd" clip-rule="evenodd" d="M9.42662 44.4272C10.5933 60.5272 23.4733 73.4072 39.5733 74.5739V78.2139C21.4666 77.0006 6.99995 62.5339 5.78662 44.4272H9.42662Z" fill="url(#paint0_linear_15880_65748)"/>
<path fill-rule="evenodd" clip-rule="evenodd" d="M39.5733 9.42685C23.4733 10.5935 10.5933 23.4735 9.42662 39.5735H5.78662C6.95329 21.4669 21.4666 6.95352 39.5733 5.78685V9.42685Z" fill="#29ABE2"/>
<path fill-rule="evenodd" clip-rule="evenodd" d="M74.5734 39.527C73.4068 23.427 60.5268 10.547 44.4268 9.38037V5.74037C62.5334 6.9537 77.0468 21.4204 78.2134 39.527H74.5734Z" fill="url(#paint1_linear_15880_65748)"/>
<path fill-rule="evenodd" clip-rule="evenodd" d="M44.4268 74.5739C60.5268 73.4072 73.4068 60.5272 74.5734 44.4272H78.2134C77.0468 62.5339 62.5334 77.0006 44.4268 78.2139V74.5739Z" fill="#29ABE2"/>
<path d="M57.4466 37.2402C58.1466 32.6669 54.6466 30.1935 49.8866 28.5602L51.4266 22.3535L47.6466 21.4202L46.1533 27.4868C45.1733 27.2535 44.1466 27.0202 43.1199 26.7868L44.6599 20.7202L40.8799 19.7868L39.3399 25.9935C38.4999 25.8068 37.7066 25.6202 36.9133 25.4335L31.6866 24.1268L30.6599 28.1868C30.6599 28.1868 33.4599 28.8402 33.4133 28.8869C34.9533 29.2602 35.2333 30.2868 35.1866 31.0802C33.7866 36.7735 32.3399 42.4202 30.9399 48.1135C30.7533 48.5802 30.2866 49.2802 29.2133 49.0002C29.2599 49.0469 26.4599 48.3002 26.4599 48.3002L24.5933 52.6402L29.4933 53.8535C30.4266 54.0868 31.3133 54.3202 32.1999 54.5535L30.6133 60.8535L34.3933 61.7868L35.9333 55.5802C36.9599 55.8602 37.9866 56.1402 38.9666 56.3735L37.4266 62.5802L41.2066 63.5135L42.7933 57.2602C49.2333 58.4735 54.0866 58.0069 56.1399 52.1735C57.7733 47.4602 56.0466 44.7535 52.6866 42.9802C55.0666 42.2335 56.9333 40.6002 57.4466 37.2402ZM48.8133 49.3735C47.6466 54.0868 39.7599 51.5202 37.1933 50.9135L39.2933 42.6069C41.8133 43.2135 50.0266 44.4735 48.8133 49.3735ZM49.9799 37.1935C48.9066 41.4868 42.3266 39.2935 40.1799 38.7802L42.0466 31.2202C44.1933 31.7335 51.0533 32.7135 49.9799 37.1935Z" fill="white"/>
</g>
<defs>
<linearGradient id="paint0_linear_15880_65748" x1="30.5013" y1="70.9619" x2="7.81195" y2="51.8519" gradientUnits="userSpaceOnUse">
<stop offset="0.21" stop-color="#ED1E79"/>
<stop offset="1" stop-color="#522785"/>
</linearGradient>
<linearGradient id="paint1_linear_15880_65748" x1="72.1748" y1="28.7144" x2="49.4854" y2="9.60437" gradientUnits="userSpaceOnUse">
<stop offset="0.21" stop-color="#F15A24"/>
<stop offset="0.68" stop-color="#FBB03B"/>
</linearGradient>
<clipPath id="clip0_15880_65748">
<rect width="84" height="84" fill="white"/>
</clipPath>
</defs>
</svg>

<svg xmlns="http://www.w3.org/2000/svg" width="84" height="84" fill="none" viewBox="0 0 84 84"><g clip-path="url(#a)"><path fill="#3B00B9" d="M42 0c23.193 0 42 18.807 42 42S65.193 84 42 84 0 65.193 0 42 18.807 0 42 0Z"/><path fill="url(#b)" fill-rule="evenodd" d="M9.427 44.427c1.166 16.1 14.046 28.98 30.146 30.147v3.64C21.467 77 7 62.534 5.787 44.427h3.64Z" clip-rule="evenodd"/><path fill="#29ABE2" fill-rule="evenodd" d="M39.573 9.427c-16.1 1.167-28.98 14.047-30.146 30.147h-3.64c1.166-18.107 15.68-32.62 33.786-33.787v3.64Z" clip-rule="evenodd"/><path fill="url(#c)" fill-rule="evenodd" d="M74.573 39.527c-1.166-16.1-14.046-28.98-30.146-30.147V5.74c18.106 1.214 32.62 15.68 33.786 33.787h-3.64Z" clip-rule="evenodd"/><path fill="#29ABE2" fill-rule="evenodd" d="M44.427 74.574c16.1-1.167 28.98-14.047 30.146-30.147h3.64c-1.166 18.107-15.68 32.574-33.786 33.787v-3.64Z" clip-rule="evenodd"/><path fill="#fff" d="M57.447 37.24c.7-4.573-2.8-7.047-7.56-8.68l1.54-6.206-3.78-.934-1.494 6.067c-.98-.233-2.006-.467-3.033-.7l1.54-6.067-3.78-.933-1.54 6.207a196.83 196.83 0 0 1-2.427-.56l-5.226-1.307-1.027 4.06s2.8.653 2.753.7c1.54.373 1.82 1.4 1.774 2.193-1.4 5.694-2.847 11.34-4.247 17.034-.187.466-.653 1.166-1.727.886.047.047-2.753-.7-2.753-.7l-1.867 4.34 4.9 1.213c.934.234 1.82.467 2.707.7l-1.587 6.3 3.78.934 1.54-6.207c1.027.28 2.054.56 3.034.794l-1.54 6.206 3.78.934 1.586-6.254c6.44 1.214 11.294.747 13.347-5.087 1.633-4.713-.093-7.42-3.453-9.193 2.38-.746 4.246-2.38 4.76-5.74Zm-8.634 12.133c-1.166 4.714-9.053 2.147-11.62 1.54l2.1-8.306c2.52.607 10.734 1.867 9.52 6.767Zm1.167-12.18c-1.073 4.294-7.653 2.1-9.8 1.587l1.867-7.56c2.146.514 9.006 1.494 7.933 5.974Z"/></g><defs><linearGradient id="b" x1="30.501" x2="7.812" y1="70.962" y2="51.852" gradientUnits="userSpaceOnUse"><stop offset=".21" stop-color="#ED1E79"/><stop offset="1" stop-color="#522785"/></linearGradient><linearGradient id="c" x1="72.175" x2="49.485" y1="28.714" y2="9.604" gradientUnits="userSpaceOnUse"><stop offset=".21" stop-color="#F15A24"/><stop offset=".68" stop-color="#FBB03B"/></linearGradient><clipPath id="a"><path fill="#fff" d="M0 0h84v84H0z"/></clipPath></defs></svg>
